X:156
T: ABEND SINKT STILL AUF DIE FLUR
N: F0288
O: Europa, Mitteleuropa, Deutschland
R: Jugend - Lied, religioes, Tageszeiten, Abend
M: 3/8
L: 1/16
K: F
 | A3BA2 | G3AG2 | F4z2
G2G2G2 | A3Ac2 | c4B2 | G4z2
A2A2=B2 | c2c2d2 | e4d2 | c4z2
f2c2A2 | c2B2G2 | F4z2

